X:324
T:Hut in the Bog
M:4/4
L:1/8
K:E minor
%
"Em"BE E2 "G"G3 A | "Em"BE E2 "D"((3Bcd) ed | "Em"{c}BE E2 "G"dedB | A3 F DEFA :|
%
"Em"B3 A G3 A | BG G2 "G"((3Bcd) "C"gd | "G"B2 {c}BA "Em"((3GAG) FG | \
"D"AD D2 AB{c}BA |
%
"Em"((3Bcd) "D"BA "G"G3 A | BG G2 "Em"((3Bcd) g2 | "D"gbaf "Em"g3 e | \
"G"dedB "D"((3ABA) GA |]


